X: 8
T:Sligo Maid, The
M:C|
L:1/8
R:Reel
K:ADor
A2BA Bdef|gedB AGEF|G2BG dGBG|DEGA BAdB|!
A2BA Bdef|gedB AGEG|~B3G A2GE|1DEGA BAAG:|2DEGA BAAd|!
|:eaag a2ga|bgaf gfed|eggf g2ge|dega bgag|!
eaag a2ga|bgaf gfed|eg~g2 edBc|1dBgB BAAd:|2dBgB BAAG|]!
